X: 122
T: No_57_Brown_Lizard.krn
N: Derived from No_57_Brown_Lizard.krn
%%abc-version 2.0
%%abcx-abcm2ps-target-version 5.9.1 (29 Sep 2008)
%%abc-creator hum2abc beta
%%abcx-conversion-date 2019/03/15 08:37:56
%%humdrum-veritas 3031873587
%%humdrum-veritas-data 824975971
%%linebreak <none>
%%barnumbers 0
L: 1/8
M: 3/4
K: Eb clef=bass
E,F,3//F,// [I:setbarnb 1]| 
G,2(3G,G,G, F,E, ||  
[M:2/4]G,G, F,E, | 
E,2C,2 | 
F,3/G,/ G,F,- | 
!fermata!F,2A,G, | 
(G,E,)F,2 ||  
[M:3/4]E,C, B,,F, G,F, | 
E,E, C,E, F,E,/E,/ | 
E,E,/E,/E,4 |]  



